X: 38619
T: Stool Of Repentance, The
R: jig
M: 6/8
K: Amajor
|:a2e c2e|agf e2c|aff f2e|fag f2e|
a2e c2e|agf e2c|d2e f2e|fac B2a:|
|:cAA eAA|cAA edc|dBB fBB|dBB fed|
cAA eAA|fag a2e|d2e f2e|fac B2a:|

